X: 633
T: The flax in bloom
C: anon.
O: Ireland
B: Francis O'Neill: "The Dance Music of Ireland" (1907) no. 633
R: Reel
Z: Transcribed by Frank Nordberg - http://www.musicaviva.com
F: http://www.musicaviva.com/abc/tunes/ireland/oneill-1001/oneill-1001-063
3.abc
M: C|
L: 1/8
K: D
D2(3(FED) FAAf|(3(gfe) (3(fed) edBd|(3(ABA) (FA) dfaf|(ga)fd (ed)Bd|D2 (3
(FED) FAAf|
(3(gfe) (3(fed) edBd|(AB)AF ABde|(fa)eg (fd)d2||(3(fgf) df (3(efe) ce|dcd
B AGFG|
DFAd FAdf|(3(gfe) (3(fed) edBd|(3(fgf) df (3(efe) ce|dcdB AGFG|DFAc defg|
(af)eg (fd)d2|]
W:
W:
W: From Musica Viva - http://www.musicaviva.com
W: the Internet center for free sheet music downloads.


